X: 36886
T: Shoe The Donkey
R: mazurka
M: 3/4
K: Gmajor
|DG|:B^A B2 DG|B^A B2 DG|B2 c2 B2|A4 DF|A^G A2 DF|
A^G A2 DF|1 A2 B2A2|G4 DG:|2 A2 dcBA|G4 Bc||
|:d2 g2 f2|A4 AB|c2 e2 d2|B4 BB|B2 A2 B2|
c3 Bcd|1 e2 d2 c2|B4 Bc:|2 e2 dcBA|G4||
Bc|:d2 B2 d2|g4 d2|f2 e2 c2|A4 G2|F2 A2 c2|
f4f e|1 e2d2c2|B4 Bc:|2 e2 dcBA|G4 Bc||
K:Dmaj
Ad|:f^e f2 Ad|f^e f2 Ad|f2 g2 f2|e4 Ac|e^d e2 Ac|
e^d e2 Ac|1 e2 f2e2|d4 Ad:|2 e2f2e2|d4 FG|
|:A2 d2 c2|E4 EF|G2 B2 A2|F4 FF|F2 E2 F2|
G3 FGA|1 B2 A2 G2|F4 FG:|2 B2A2F2|D4 FA||
|:d2d2d2|f2d2A2|B2B2B2|
[1 e4ed|c2c2c2|e2c2B2|A2B2G2|F4AA:|
[2 e4ef|g2e2ef|g2e2c2|A2B2c2|d4 FG||
|:A2 d2 c2|E4 EF|G2 B2 A2|F4 FF|F2 E2 F2|
G3 FGA|1 B2 A2 G2|F4 FG:|2 B2A2F2|D4 FA||

